X: 344
T: Go to the Devil and shake yourself
%R: jig
Z: 2014 John Chambers <jc:trillian.mit.edu>
B: Preston "Twenty four Country Dances for the Year 1798" p.152 #2
F: http://www.vwml.org/browse/browse-collections-dance-tune-books/browse-prestons1798# 2014-8-10
M: 6/8
L: 1/8
K: C
|:\
Gcc cBA | GAG GEG | Gcc c2d | ecA A2G |\
Gcc cBA | GAG GEG | cec dfd | ecc c3 :|
|:\
gec cBc | AFF F3  | afd ded | BGG G3 |\
Gcc cBA | GAG GEG | cec dfd | ecc c3 :|
% - - - - - - - - - - - - - - - - - - - - - - - - -
%%begintext align
%% 3 Gent: Promenade round the 3 Ladies 3 Ladies
%% Promenade round the 3 Gent: lead down the middle
%% up again & cast off right & left at top.
%%endtext
% - - - - - - - - - - - - - - - - - - - - - - - - -

%%sep 1 1 500
%%sep 1 1 500
